X: 1394
T: Nellie O'Donovan
M:C|
L:1/8
N:"collected by Cronin"
B:O'Neill's 1394
Z:"Transcribed by Bob Safranek, rjs@gsp.org"
K:G
B2 Bd dcAc | BGGB d2 cA | B2 Bd dcAc | d2 cA AGGA |
B2 Bd dcAc | BGGB d2 cA | BABd  dcAc | dBcA  AGGe ||
fgaf  gfeg | fdcA Adde  | fgaf  gfeg | fdcA  AGGe |
fgaf  gfeg | fdcA Adde  | fefg  abag | fdcA  AGGA |]


